X:14
T:Beggar Girl  
O:No 14 Page 5 William Clarke of Feltwell   MS 1858
N:Repeats adjusted to give 16 bars
I:abc2nwc
M:6/8
L:1/8
K:G
d3/2c/2B d3/2c/2B|AGA B3/2c/2d|d3/2c/2B d3/2c/2B|AGA G3:|
"^*"DFA DAc|DcB {B}AGA|DGG EcB|AGF d2z|
d3/2c/2B d3/2c/2B|AGA B3/2c/2d|d3/2c/2B e3/2f/2g|BcA {A}G3|]

